src/rounded/icons/fi-rr-filter.svg

<svg id="Layer_1" height="512" viewBox="0 0 24 24" width="512" xmlns="http://www.w3.org/2000/svg" data-name="Layer 1"><path d="m14 24a1 1 0 0 1 -.6-.2l-4-3a1 1 0 0 1 -.4-.8v-5.62l-7.016-7.893a3.9 3.9 0 0 1 2.916-6.487h14.2a3.9 3.9 0 0 1 2.913 6.488l-7.013 7.892v8.62a1 1 0 0 1 -1 1zm-3-4.5 2 1.5v-7a1 1 0 0 1 .253-.664l7.268-8.177a1.9 1.9 0 0 0 -1.421-3.159h-14.2a1.9 1.9 0 0 0 -1.421 3.158l7.269 8.178a1 1 0 0 1 .252.664z"/></svg>

<svg id="Layer_1" data-name="Layer 1" xmlns="http://www.w3.org/2000/svg" viewBox="0 0 24 24"><path d="M14,24a1,1,0,0,1-.6-.2l-4-3A1,1,0,0,1,9,20V14.38L1.984,6.487A3.9,3.9,0,0,1,4.9,0H19.1a3.9,3.9,0,0,1,2.913,6.488L15,14.38V23a1,1,0,0,1-1,1Zm-3-4.5L13,21V14a1,1,0,0,1,.253-.664l7.268-8.177A1.9,1.9,0,0,0,19.1,2H4.9A1.9,1.9,0,0,0,3.479,5.158l7.269,8.178A1,1,0,0,1,11,14Z"/></svg>
